X: 41408
T: Twilight In Portroe
R: reel
M: 4/4
K: Amajor
|:A,2CE D2FA|E2GB A2ce|(3ddd df ecAc|(3BBB AB cAFD|
A,2CE D2FA|E2GB A2ce|(3ddd df ecAc|(3BBB AB cAAB:|
|:c2 ec fcec|AAcA BAFA|EFAB cAce|fefg afed|
c2 ec fcec|AAcA BAFA|EFAB cAce|fefg a4:|

